X:1
T:Raise Me, Jesus, to Thy Bosom
T:Raise Me, Jesus, to Thy Bosom
T:William A. Huntley
T:George Birdseye, 1885
T:Public Domain Courtesy of the Cyber Hymnal™
T:Public Domain Courtesy of the Cyber Hymnal™
C:William A. Huntley
Z:Public Domain
Z:Courtesy of the Cyber Hymnal™
%%score ( 1 2 ) 3 4
L:1/8
Q:1/4=90
M:4/4
K:F
V:1 treble 
V:2 treble 
V:3 treble 
V:4 bass 
V:1
"^Duet" [Ac]>[^G=B] | [Bd]2 [Ac]4 [EG][FA] | ([Ac][^G=B]) [=G_B]4 [GB]>[Ac] | %3
w: 1.~Raise me,|Je- sus, to Thy|bo- * som, From this|
w: 2.~Raise me,|Je- sus, to Thy|bo- * som, For my|
w: 3.~Raise me,|Je- sus, to Thy|bo- * som, Hear a|
 [ce]4- [ce][Bd][B,G][=B,^G] | [CA]4- [CA] z [Ac]>[^G=B] | [Bd]2 c4 [EG][FA] | %6
w: world * of sin and|woes; * Let me|feel Thine arms a-|
w: heart * is slave to|fear, * That will|van- ish as a|
w: con- * trite spir- it’s|prayer; * Raise me|from the sin a-|
 ([Ac][^G=B]) [=G_B]4 [GB]>[Ac] | [Be]3 [Bd] [EB]3 [B,E] | [A,F]6"^Solo" A>A | A2 d2 f3 d | %10
w: round * me, Then my|soul may know re-|pose. I am|wea- ry with my|
w: sha- * dow, When it|feels Thy pre- sence|near. In my|an- guish deign to|
w: round * me Ere I|yield me to des-|pair. Oh, I|feel that Thou wilt|
 f2 e4 AA | B2 A2 E3 F | D6 A>A | A2 d2 f3 d | f2 e4 AA | B2 A2 e3 f | %16
w: bur- den, And I|come to Thee for|rest; Kneel- ing|at Thy feet, I|pray Thee, Lift me,|Je- sus, to Thy|
w: hear me All my|sin and grief con-|fess; By the|prom- ise Thou hast|giv- en, Lift me,|Je- sus, to Thy|
w: hear me, And will|give me ho- ly|rest; Now I|feel Thy glo- ry|near me, Lift me,|Je- sus, to Thy|
 (z [DF][DF][DF] !fermata!z !fermata![EB]) ||"^Refrain or Quartet" [Ac]>[^G=B] | %18
w: |* breast.|
w: |* breast.|
w: |* breast.|
 [Bd]2 [Ac]4 [EG]>[FA] | ([Ac][^G=B]) [=G_B]4 [GB]>[Ac] | [Be]4- [Be][Bd][EG][E^G] | %21
w: |||
w: |||
w: Raise me, Je- sus,|to * Thy bo- som,|From * this world of|
 [FA]4- [FA] z [Ac]>[^G=B] | [Bd]2 [Ac]4 [EG][FA] | ([Ac][^G=B]) [=G_B]4 [GB]>[Ac] | %24
w: |||
w: |||
w: sin * and woes;|Let me feel Thine|arms * a- round me,|
 [Be]3 [Bd] [EB]3 [CE] | [CF]6 |] %26
w: ||
w: ||
w: Then my soul may|know|
V:2
 x2 | x8 | x8 | x8 | x8 | x8 | x8 | x8 | x8 | x8 | x8 | x8 | x8 | x8 | x8 | x8 | d4 e2 || x2 | x8 | %19
 x8 | x8 | x8 | x8 | x8 | x8 | x6 |] %26
V:3
 [Ac]>[^GB] | z (C[FA]C) z (C[Fc])C | z (C[EB]C) z (C[EB]C) | z (C[EB]C) z C[EB]C | %4
 ([CFA][ca][Af][Ac]) z2 [Ac]>[^G=B] | z (C[FA]C) z (C[Fc])C | z (D[GB]D) z (D[GB]D) | %7
 z (C[EB]C) z (C[EB]B,) | z (F[FA][FAc] [FAf]2) x2 | x8 | x8 | x8 | x8 | x8 | x8 | x8 | x6 || x2 | %18
 x8 | x8 | x8 | x8 | x8 | x8 | x8 | x6 |] %26
V:4
 z2 | [F,,F,]2 z2 A,,2 z2 | G,,2 z2 [C,,C,]2 z2 | [G,,G,]2 z2 [C,,C,]2 z2 | %4
 ([F,,F,]2 [F,A,]2 C,2) z2 | [F,,F,]2 z2 A,,2 z2 | [D,,B,,]2 z2 [B,,B,]2 z2 | %7
 [G,,A,]2 z2 [C,,C,]2 z2 | ([F,,F,]C,A,,C, [F,,F,]2) [G,A,C][G,A,C] | %9
 (D,,[A,DF])([A,DF][A,DF]) ([A,DF][A,DF][A,DF])[A,DF] | %10
 (G,,[G,B,E]) ([G,B,E][G,B,E]A,,[F,A,D])[F,A,D][F,A,D] | %11
 (A,,[G,A,^C]) ([G,A,C][G,A,C]) A,,2 [G,A,C]2 | (D,,A,F,A, !fermata![C,G,]2) [G,A,^C][G,A,C] | %13
 (D,,[A,DF]) ([A,DF][A,DF]) ([A,DF][A,DF][A,DF])[A,DF] | %14
 (G,,[G,B,E]) ([G,B,E][G,B,E]A,,[F,A,D])[F,A,D][F,A,D] | %15
 (A,,[G,A,^C])[G,A,C][G,A,C] A,,2 [G,A,C]2 | (D,,A,F,A, !fermata![C,G,]2) || [F,C]>[F,C] | %18
 [F,C]2 [F,C]4 [C,C]>[C,C] | [C,C]2 [C,E]4 [C,C]>[C,C] | [C,G,]4- [C,G,][C,C][C,C][C,C] | %21
 [F,C]4- [F,C] z [F,C]>[F,C] | [F,C]2 [F,C]4 [C,C][F,C] | [B,,D]2 [B,,D]4 [C,C]>[C,C] | %24
 [C,G,]3 [C,C] [C,C]3 [C,B,] | [F,A,]6 |] %26

